X: 10109
T: TAMMY'S WALTZ
C: Bob McQuillen 9 Nov 93
B: Bob's Note Book 10 #109
%R: waltz
Z: 2020 John Chambers <jc:trillian.mit.edu>
M: 3/4
L: 1/8
K: G
GA \
| "G"B2 Bc BA | G2 D2 G2 | "C"G3 F E2 | "G"D4 GA | B2 Bc BA | "Em"G2 D2 DD | "A7"E2 G3 B | "D7"A4 GA |
| "G"B2 d2 dB | "G7"A2 G2 GA | B2 c2 d2 | "C"e4 cd | e2 ef ga | "G"g2 d2 dc | "D7"B2 BG A2 | "G"G4 :|
|: Bd \
| "C"e2 cd eg | "G"dB G2 Bd | "C"e2 cd eg | "Bm"d4 Bd | "C"e2 cd eg | "Em"d2 B2 gf | "A7"e2 f2 g2 | "D"a4 ga |
| "G"b2 g2 ag | "Bm"f2 d2 gf | "C"e2 f2 g2 | "G"d6 | "C"g2 g2 fe | "G"d g3 Bd | "D7"c2 B2 A2 | "G"G4 :|
%%begintext align
%% Back years ago when
%% my wife, Priscilla, and I were talking kids names, Tomasyn
%% ("Tammy") was a front runner. "Rebecca" won out when the time
%% came (Hi Becka!), but it was close. So when son Daniel married a
%% lovely Texas girl (they live in Houston) named "Tammy", you can just
%% imagine how surprised I was! Prissy would have been thrilled with you,
%% Tammy, just as I am - much love to you always (from the I.D.!)
%%endtext

%%sep 1 1 500

%%sep 1 1 500

